X:0764
T:Mr. Drummond (Younger) of Perth's Strathsy.
M:C
L:1/8
Q:1/4=120
I: :: ||
Z:Jack Campin * www.campin.me.uk * 2009
K:G
B   |G<Gd>B d>ed>B|G<GTd>B e>AA>B|G<Gd>B d>e`g<b| g>ed>g BGG:|
e/f/|gdg>a  b>ga>b|g<d`g>b ad`fa |g`dg>a b>g`ab |Tg>ed>c BGG
e/f/|gdg>a  b>ga>b|gd``g>b a>dfa |g>ba>f g>dTc>B| Ag`fa  gGG|]
<end>
<start>
